Obsidian-SemiLight/actions/22s/format-border-set-diagonal-tl-br.svg

<svg viewBox="0 0 22 22" xmlns="http://www.w3.org/2000/svg"><g fill="#4d4d4d"><path d="m3.7070312 2 1 1h6.2929688v6.2929688l1.707031 1.7070312h6.292969v6.292969l1 1v-.292969-7-1-7-1h-1-7-1-7zm-.7070312.7070312v.2929688 7 1 7 1h1 7 1 7 .292969l-1-1h-6.292969v-6.292969l-1.707031-1.707031h-6.292969v-6.2929688zm9 .2929688h7v7h-7zm-8 8h7v7h-7z" fill-opacity=".1"/><path d="m4.7070312 3 6.2929688 6.2929688v-6.2929688zm7.2929688 0v7h7v-7zm-8 .7070312v6.2929688h6.292969zm0 7.2929688v7h7v-7zm8.707031 0 6.292969 6.292969v-6.292969zm-.707031.707031v6.292969h6.292969z" fill-opacity=".5"/><path d="m345.29297 553.3622-16.29297-16.29297v-.70703h.70703l16.29297 16.29297v.70703z" transform="translate(-326 -534.3622)"/></g></svg>

<svg xmlns="http://www.w3.org/2000/svg" viewBox="0 0 22 22">
  <defs id="defs3051">
    <style type="text/css" id="current-color-scheme">
      .ColorScheme-Text {
        color:#4d4d4d;
      }
      </style>
  </defs>
 <path 
     style="fill:currentColor;fill-opacity:0.1;stroke:none" 
     d="M 3.7070312 2 L 4.7070312 3 L 11 3 L 11 9.2929688 L 12.707031 11 L 19 11 L 19 17.292969 L 20 18.292969 L 20 18 L 20 11 L 20 10 L 20 3 L 20 2 L 19 2 L 12 2 L 11 2 L 4 2 L 3.7070312 2 z M 3 2.7070312 L 3 3 L 3 10 L 3 11 L 3 18 L 3 19 L 4 19 L 11 19 L 12 19 L 19 19 L 19.292969 19 L 18.292969 18 L 12 18 L 12 11.707031 L 10.292969 10 L 4 10 L 4 3.7070312 L 3 2.7070312 z M 12 3 L 19 3 L 19 10 L 12 10 L 12 3 z M 4 11 L 11 11 L 11 18 L 4 18 L 4 11 z "
     class="ColorScheme-Text"
     />
 <path 
     style="fill:currentColor;fill-opacity:0.5;stroke:none" 
     d="M 4.7070312 3 L 11 9.2929688 L 11 3 L 4.7070312 3 z M 12 3 L 12 10 L 19 10 L 19 3 L 12 3 z M 4 3.7070312 L 4 10 L 10.292969 10 L 4 3.7070312 z M 4 11 L 4 18 L 11 18 L 11 11 L 4 11 z M 12.707031 11 L 19 17.292969 L 19 11 L 12.707031 11 z M 12 11.707031 L 12 18 L 18.292969 18 L 12 11.707031 z "
     class="ColorScheme-Text"
     />
 <path 
     style="fill:currentColor;fill-opacity:1.0;stroke:none" 
     d="M 345.29297,553.3622 329,537.06923 l 0,-0.70703 0.70703,0 16.29297,16.29297 0,0.70703 -0.70703,0 z"
     class="ColorScheme-Text"
     transform="translate(-326,-534.3622)"
     />
</svg>
